X: 18
T: Cantiga 18: Por nos de dulta tirar
N: 16 in To
B:Cantigas de Santa Maria
F:http://www.pbm.com/~lindahl/cantigas/facsimiles/E/087small.html
F:http://www.pbm.com/~lindahl/cantigas/facsimiles/To/bob016small.gif
Z:Ali Corbin <ali.corbin:gmail.com>
M: 3/4
L: 1/4
Q: 1/4=160
K: D Dorian
V:1
%Staff 1
%%MIDI program 74
%
   F  (FG)|A2  B|(c/B/) (AG)|A2   (A/G/)|F (GF/E/)| F (GA)|(G/F/FE)|F3|
w:Por nos* de dul-ta*    ti-*rar,  praz* a  San-** ta  Ma-* ri-***  a
   F (FG) |A2  B|(c/B/)(AG) | A2  (A/G/)|F (FG)|(A>G) (F/E/)|(DEC)| D3 |
w:de seus* mi-ra- gres* mo-*strar  fre-*mo-sos*  ca-*  da*    di-** a.
%
  d2 c|(BA/B/) G|(AB) (c/B/)|(AG) (A/G/)|F (FG)| A3|A3 |
w:E por nos** fa-zer*  ve-*   er*  sa*   a- pos-*tu-ra,
   d2   c|(BA/B/) G |(AB) (c/B/)|(AG) (A/G/)|(F/E/) (D  C)|D3| D3| 
w:gran mi- ra-** gre foi*  fa-*  zer*  en*    E-*  stre-ma-du-ra,
  F (FG)|A2  B |(c/B/) (AG)|A2  (A/G/)|F (GF/E/)|F (GA)|(G/F/FE)|F3 |
w:en Se-*go-via, u*     mo-*rar  hu-*  a  do-**na   so-* y-***   a,
   F (FG)| A2  B|(c/B/) (AG)| A2 (A/G/)|F (FG)|(A>G) (F/E/)|(DEC)| D3 ||
w:que mui-*to sir-go*    cri-*ar  en*  ssa ca-* sa*   fa-*   zi-** a.
%%
%%newpage
%%multicol start
%%leftmargin  4cm
%%rightmargin 5cm
%%begintext
Esta é como Santa Maria fez fazer aos babous que crian a seda duas toucas, 
porque a dona que os guardava lle prometera huma e non lla dera.
%% 
%%endtext
%%multicol start
%%leftmargin  7cm
%%rightmargin 7cm
%%begintext
Por nos de dulta tirar,
praz a Santa Maria
de seus miragres mostrar
fremosos cada dia.
%% 
%%endtext
%%multicol start
%%leftmargin  2cm
%%rightmargin 10.5cm
%%begintext
E por nos fazer veer   sa apostura,
gran miragre foi fazer    en Estremadura,
en Segovia, u morar
huma dona soya,
que muito sirgo criar
en ssa casa fazia.
%%
Por nos de dulta tirar...
%% 
Porque os babous perdeu   e ouve pouca
seda, poren prometeu   dar huma touca
per' a omagen onrrar
que no altar siia
da Virgen que non á par,
en que muito criya.
%%
Por nos de dulta tirar...
%% 
Pois que a promessa fez,   senpre creceron
os babous ben dessa vez   e non morreron;
mas a dona con vagar
grande que y prendia,
d' a touca da seda dar
senpre ll' escaecia.
%%
Por nos de dulta tirar...
%% 
Onde ll' aveo assi   ena gran festa
d' Agosto, que veo y   con mui gran sesta
ant' a omagen orar;
e ali u jazia
a prezes, foi-lle nenbrar
a touca que devia.
%%
Por nos de dulta tirar...
%%
Chorando de coraçon   foi-sse correndo
a casa, e viu enton   estar fazendo
os bischocos e obrar
na touca a perfia,
e começou a chorar
con mui grand' alegria.
%%
Por nos de dulta tirar...
%% 
%%endtext
%%multicol new
%%leftmargin 12cm
%%rightmargin 2cm
%%begintext
E pois que assi chorou,   meteu ben mentes
na touca; des i chamou   muitas das gentes
y, que veessen parar
mentes como sabia
a Madre de Deus lavrar
per santa maestria.
%%
 Por nos de dulta tirar...
%% 
As gentes, con gran sabor,   quand' est' oyron
dando aa Madre loor   de Deus, sayron
aas ruas braadar,
dizendo: «Via, via
o gran miragre catar
que fez a que nos guia.»
%%
Por nos de dulta tirar...
%% 
Un e un, e dous e dous   log' y veeron;
ontre tanto os babous   outra fezeron
touca, per que fossen par,
que se alguen queria
a huma delas levar,
a outra leixaria.
%%
Por nos de dulta tirar...
%% 
Poren don Affons' el Rei   na ssa capela
trage, per quant' apres' ei,   end' a mais bela,
que faz nas festas sacar
por toller eregia
dos que na Virgen dultar
van per sa gran folia.
%%
Por nos de dulta tirar...
%%endtext
%%multicol end


%%landscape 0
